X:301
T:
R:polska
S:Från Gotlands fornsal.
O:Gotland
M:3/4
L:1/16
K:F
F2fe f2cB A2GF|E2ag a2f2 c2A2|B2gf g2e2 c2A2|BABd c2cd c4|F2fe f2cB A2GF|
F2ag a2f2 c2A2|B2gf g2e2 c2A2|cBAG G4 F4::g2ge c2ce fefg|a2af c2c2 a4|
b2ba g2gf e2ef|gagf efed cBAG|c2cA F2F2 d4|c2cA F2F2 d4|c2c2 B2B2 A2A2|
G2G2 FEFG AGAB|c2cA F2F2 d4|c2cA F2F2 d4| c2c2 B2B2 A2A2|GFEF G4 F4:|

